Numix-GalliumOS/64/actions/window-new.svg

<svg width="64" xmlns="http://www.w3.org/2000/svg" height="64" viewBox="0 0 64 64" xmlns:xlink="http://www.w3.org/1999/xlink">
<path style="fill:#fff" d="M 7.5 4.035156 C 3.394531 4.035156 0 7.429688 0 11.535156 L 0 60.035156 L 56 60.035156 L 56 11.535156 C 56 7.429688 52.605469 4.035156 48.5 4.035156 Z "/>
<path style="fill:#888" d="M 7.5 4.035156 C 3.394531 4.035156 0 7.429688 0 11.535156 L 0 60.035156 L 56 60.035156 L 56 11.535156 C 56 7.429688 52.605469 4.035156 48.5 4.035156 Z M 7.5 8.035156 L 48.5 8.035156 C 50.457031 8.035156 52 9.578125 52 11.535156 L 52 56.035156 L 4 56.035156 L 4 11.535156 C 4 9.578125 5.539062 8.035156 7.5 8.035156 Z "/>
<path style="fill:#000;fill-opacity:.102" d="M 4 24 L 20 24 L 20 56 L 4 56 Z "/>
<g style="fill:#888;fill-opacity:.902">
<path d="M 4 20 L 4 24 L 52 24 L 52 20 Z "/>
<path d="M 20 24 L 20 56 L 24 56 L 24 24 Z "/>
</g>
<path style="fill:#859900" d="M 64 40 L 52 40 L 52 28 L 40 28 L 40 40 L 28 40 L 28 52 L 40 52 L 40 64 L 52 64 L 52 52 L 64 52 Z "/>
</svg>

<svg xmlns="http://www.w3.org/2000/svg" viewBox="0 0 64 64">
 <rect width="60" height="49" x="2" y="9" style="fill:#fff;opacity:1;fill-opacity:1;stroke:none"/>
 <path d="m 2.148 4 c -1.172 0.117 -2.156 1.216 -2.148 2.395 l 0 51.21 c 0 1.257 1.141 2.395 2.398 2.395 l 59.2 0 c 1.258 0 2.398 -1.138 2.398 -2.395 l 0 -51.21 c 0 -1.257 -1.141 -2.395 -2.398 -2.395 z m 1.852 8 56 0 0 43.93 -56 0 z" style="fill:#888;fill-opacity:1"/>
 <path d="m 64 40 -12 0 0 -12 -12 0 0 12 -12 0 0 12 12 0 0 12 12 0 0 -12 12 0 z" style="fill:#859900"/>
</svg>
